X:1
T:Mein Vater! Schau, wie ich mich quäle
T:Mein Vater! Schau, wie ich mich quäle
T:Aria from Brockes-Passion – FaWV F:1
T:Johann Friedrich Fasch (1688 - 1758)
C:Johann Friedrich Fasch (1688 - 1758)
%%score 1 2 3
L:1/8
M:3/4
K:Bb
V:1 treble nm="Alt-blokfluit" snm="A. Blf."
V:2 bass+8 nm="Bas-blokfluit" snm="Bs. Blf."
V:3 bass nm="Viola da gamba" snm="Vla. d. g."
V:1
 z[Q:1/4=71]"^Adagio" d (g^fg)d | z d(ag)ad | z b(ba)(ag) | g(bc')bag | ^fa(ab)(bc') | %5
 c'g(ga)(ab) | b^f(fg)(ga) | a=e(e^f)(fg) | (g^f)(gf)(gf) | (gab)=bc'^c' | d'(a_b)ag^f | %11
 g=e (T^f3 g) | (g^f)(gf)gd | z ^f (gfg)c | z ^fgfgd | e4 =e2 | ^f2 a4- | a2 g2 ^f2 | g6 | gecbag | %20
 (g^f)fa_ed | ca(dc)(BA) | B2 G2 z2 | z2 Fc (e/d/c) | f2 B2 z2 | z6 | z b(ab)(ab) | gc'(bc')(bc') | %28
 ac'fc d2- | dG B2 cB | B3 d cB | (eee)eee | z2 z2 z a | ^fa d2 z2 | z6 | z6 | z6 | z g(^fg)(fg) | %38
 z g(^fg)(fg) | z g(^fg)(fg) | eb(ag)(g^f) | ^facA B2 | B>G TA4 | G4 z2 | z2 b2 z2 | z2 b2 z2 | %46
 z e d3 e | c2 z2 z2 | z a(ga)(ga) | z b(ab)(ab) | z ^f(=ef)(ef) | (g^fg)(bag) | ^f2 z2 f2 | %53
 .g2 .G2 z c' | (c'b) b2 z f | fdefd=e | c2 z cAF | !fermata!a3 c'ba | bg Ta3 b | !fermata!b6 || %60
 z d (g^fg)d | z d(ag)ad | z b(ba)(ag) | g(bc')bag | ^fa(ab)(bc') | c'g(ga)(ab) | b^f(fg)(ga) | %67
 a=e(e^f)(fg) | (g^f)(gf)(gf) | (gab)=bc'^c' | d'(a_b)ag^f | g=e (T^f3 g) | (g^f)(gf)gd | %73
 z ^f(gfg)c | z ^f(gfg)d | e4 =e2 | ^f2 a4- | a2 g2 T^f2 | g6 | gecbag | (g^f)fa(_ed) | %81
 ca(dc)(BA) | B>A G2 z2 | z2 Fc (e/d/c) | f2 B2 z2 | z6 | z b(ab)(ab) | gc'(bc')(bc') | ac'fc d2- | %89
 dG B2 cB | B3 d cB | (eee)eee | z2 z2 z a | ^f/g/a d2 z2 | z6 | z6 | z6 | z g(^fg)(fg) | %98
 z g(^fg)(fg) | z g(^fg)(fg) | eb(ag)(g^f) | ^faca b2 | b>g Ta4 | !fermata!g6 |] %104
V:2
 z6 | z6 | z6 | z6 | z6 | z6 | z6 | z6 | z6 | z6 | z6 | z6 | z2 z z B,2 | G,2 G,,2 z2 | D4 B,2 | %15
 B,2 A,4 | A,2 C4- | C2 B,2 A,2- | A,2 G,2 F,2 | E,4 (=E,2 | =E,)D, D,2 z2 | z6 | z2 z2 B,2 | %23
 C2 (A,3 B,/C/) | B,4 (G,F,) | D,2 TC,4 | B,,4 z2 | z6 | z6 | z6 | z2 B,4 | (B,A,) A,2 z2 | %32
 (CB,)(A,G,)(^F,G,) | A,^F, D,2 B,2 | _A,2 ^F,3 G,/=A,/ | G,4 C2 | B,G, A,4 | G,6- | G,6- | %39
 G,4 z2 | z6 | z6 | z6 | z B,(A,B,)(A,B,) | E,B,(A,B,)(A,B,) | F,2 (A,B,)(A,B,) | G,A, B,3 C | %47
 A,C(E,G,) F,2 | D,6- | D,6 | z6 | z6 | z C .B,2 .A,2 | B,2 z G, E,E, | E,D,D,_A, (A,2 | %55
 _A,)F,G,=A,B,C | A,C E,2 E,2 | !fermata!E,3 E, D,C, | D,E, TC,3 B,, | !fermata!B,,6 || z6 | z6 | %62
 z6 | z6 | z6 | z6 | z6 | z6 | z6 | z6 | z6 | z6 | z2 z z B,2 | G,2 G,,2 z2 | D4 B,2 | B,2 A,4 | %76
 A,2 C4- | (CB,) (B,A,) A,2- | (A,G,) (G,F,) F,2 | (F,2 E,2) (=E,2 | =E,)D, D,2 z2 | z6 | %82
 z2 z2 B,2 | C2 (A,3 B,/C/) | (B,3 A,) G,(F,/E,/) | D,2 (D,/C,/)B,,/C,/ D,C, | B,,4 z2 | z4 z2 | %88
 z6 | z6 | z2 B,4 | (B,A,) A,2 z2 | (CB,)(A,G,)(^F,G,) | (A,/G,/)^F, D,2 B,2 | %94
 _A,2 (T^F,3 G,/=A,/) | G,4 C2 | B,(A,/G,/) A,/B,,/C,/D,/ =E,/^F,/G,/A,/ | G,6- | G,6- | G,4 z2 | %100
 z6 | z2 z2 G,,2 | G,2 G,,2 T^F,2 | !fermata!G,6 |] %104
V:3
!mp! !0!G,,4 z2 | z2 !2!^F,4 | !3!G,4 !1!F,2 | !3!E,4 !0!C,2 | !2!D,4 D,2 | !3!E,4 !0!C,2 | %6
 !2!D,4 !3!B,,2 | !0!C,4 !2!A,,2 | !3!B,,4 z2 | !1!B,!0!A,!3!G,!1!F,!3!E,!0!=E, | !2!D,4 !0!C,2 | %11
 !3!B,,!0!C, !2!D,2 !0!D,,2 | !0!G,,4 z2 | !3!E,4 z2 | !3!B,,4 !0!G,,2 | !0!C,4 !1!^C,2 | %16
 !2!D,4 !2!^F,2 | !3!G,2 !0!G,,2 !2!A,,2 | !3!B,,4 !4!=B,,2 | !0!C,4 !1!^C,2 | !2!D,6 | %21
 !4!^F,,4 !0!D,,2 | !0!G,,4 !3!G,2 | !3!E,2 !1!F,4 | !2!D,4 !3!E,2 | !1!F,2 !3!F,,4 | %26
 !3!B,,4 !3!E,2 | !3!E,4 !0!=E,2 | !1!F,2 !2!A,,2 !3!B,,2 | !3!E,2 !1!F,2 !3!F,,2 | %30
 !3!B,,4 !0!G,,2 | !0!C,6 | !3!E,!2!D,!0!C,!3!B,,!2!A,,!0!G,, | !2!D,4 !0!G,,2 | !0!C,2 !2!D,4 | %35
 !3!E,4 !2!^F,2 | !3!G,2 !2!D,2 !0!D,,2 | !0!G,,4 z2 | !3!E,4 z2 | !3!B,,4 !4!=B,,2 | %40
 !0!C,2 !1!^C,4 | !2!D,2 !2!^F,2 !3!G,2 | !3!B,,2 !2!D,2 !0!D,,2 | !0!G,,4 z2 | !3!G,2 z4 | %45
 !2!D,2 z2 !2!D,2 | !3!E,!0!C, !3!B,,2 !3!E,2 | !1!F,4 z2 | !4!^F,,4 z2 | !0!A,,4 z2 | %50
 !2!A,,4 !2!A,,2 | !3!B,,2 !3!E,2 !0!C,2 | !2!D,2 z2 !0!D,,2 | !0!G,,2 z2 !2!A,,2 | %54
 !3!B,,2 z2 !0!C,2 | !2!D,2 z2 !4!=E,2 | !1!F,4 z2 | !fermata!!3!F,,4 !3!F,,2 | %58
 !3!B,,!2!E,, !3!F,,4 | !fermata!!3!B,,6 || !0!G,,4 z2 | !2!^F,4 z2 | !3!G,4 !3!E,2 | %63
 !3!E,4 !0!C,2 | !2!D,4 !2!D,2 | !3!E,4 !0!C,2 | !2!D,4 !3!B,,2 | !0!C,4 !2!A,,2 | !3!B,,4 z2 | %69
 !1!B,!0!A,!3!G,!1!F,!3!E,!4!=E, | !2!D,4 !0!C,2 | !3!B,,!0!C, !2!D,2 !0!D,,2 | !0!G,,4 z2 | %73
 !3!E,4 z2 | !3!B,,4 !0!G,,2 | !0!C,4 !1!^C,2 | !2!D,4 !2!^F,2 | !3!G,2 !0!G,,2 !2!A,,2 | %78
 !3!B,,4 !4!=B,,2 | !0!C,4 !1!^C,2 | !2!D,6 | !4!^F,,4 !0!D,,2 | !0!G,,4 !3!G,2 | !3!E,2 !1!F,4 | %84
 !2!D,4 !3!E,2 | !1!F,2 !3!F,,4 | !3!B,,4 !2!D,2 | !3!E,4 !3!E,2 | !1!F,2 !2!A,,2 !3!B,,2 | %89
 !3!E,2 !1!F,2 !3!F,,2 | !3!B,,4 !0!G,,2 | !0!C,6 | E,D,C,B,,A,,G,, | D,4 G,,2 | C,2 D,4 | %95
 E,4 ^F,2 | G,2 D,2 D,,2 | G,,4 z2 | E,4 z2 | B,,4 =B,,2 | C,2 ^C,4 | z4 G,,2 | B,,2 D,2 D,,2 | %103
 !fermata!G,,6 |] %104

